X:183
T:Wyres Ned Puw - Ned Puw's Grand-daughter
M:2/4
L:1/16
Q:90
C:Trad. arr. J.T.
R:Processional
N:Major arrangement
K:D
D2DE F2FG | AFED E2E2 | D2DE FEFG | AFGB A4|
FEFA GFGA | FEFG AFED | D2DE FEFG | AFED D4||
